X: 1
T: Mussels In The Corner
M: 2/4
L: 1/8
R: polka
K: Gmaj
GF ED|B,D E2|DB, G,A,|B,A, A,z|
GF ED|B,D E2|DB, A,B,|G,2 G,2|
B,B, A,G,|B,D E2|DB, G,A,|B,A, A,z|
B,B, A,G,|B,D E2|DB, A,B,|G,2 G,2|
